!!!!SEGMENT: pl-kk--kk-i-382--085_anonim--offertorium-nro-26.krn
!!!id: 18xx:1587
!!!COM: Anonim
!!!COM-rism: pe30004985
!!!CDT:
!!!CNT:
!!!OTL: Offertorium Nro 26
!!!PDT:
!!!SMS-siglum: PL-Kk
!!!SMS-shelfmark: Kk.I.382
!!!NIFC-rismID: 1001142297
!!!URL-scan: http://repozytorium.nifc.pl/skany/pl-kk-nut--i-382
!!!ONB-nifc: UWAGA: Offertoria od skanu 0041 (S/T1), 0113 (T2), 0185 (A/B1), 0262 (B2)
!!!ONB-nifc: UWAGA: obsada: S/T1, A/B1, T2, B2. Skany 0050-0051, 0196, 0123, 0272
!!!SMS-variant:
!!!SMS-altvar:
**kern	**text	**kern	**text	**kern	**text	**kern	**text
*part4	*part4	*part3	*part3	*part2	*part2	*part1	*part1
*staff4	*staff4	*staff3	*staff3	*staff2	*staff2	*staff1	*staff1
*I"Basso II	*	*I"Tenore II	*	*I"Alto. vel Basso I	*	*I"Soprano vel Tenore I.	*
*I'B2	*	*I'T2	*	*I'A / B1	*	*I'S / T1	*
*clefF4	*	*clefC4	*	*clefC3	*	*clefC1	*
*k[b-]	*	*k[b-]	*	*k[b-]	*	*k[b-]	*
*F:	*	*F:	*	*F:	*	*F:	*
*M3/4	*	*M3/4	*	*M3/4	*	*M3/4	*
=1	=1	=1	=1	=1	=1	=1	=1
*all\right	*	*all\right	*	*all\right	*	*all\right	*
*2\right	*	*2\right	*	*2\right	*	*2\right	*
!	!	!LO:TX:a:t=3.	!	!LO:TX:a:t=P:problem:nad nutą "a" dopisane ołówkiem	!	!	!
!LO:TX:a:t=Nro 26.	!	!LO:TX:a:t=Nro 26	!	!LO:TX:a:t=Nro 26.	!	!LO:TX:a:t=Nro 26.	!
!	!	!LO:N:vis=0	!	!	!	!	!
2F\	Lau-	1.r	.	(4a\	Lau-	(4cc\	Lau-
!	!	!	!	!LO:TX:a:t=P:problem:nad nutą "f" dopisane ołówkiem	!	!	!
.	.	.	.	4f\)	.	4a\)	.
!	!	!	!	!LO:TX:a:t=P:problem:nad nutą "g" dopisane ołówkiem	!	!	!
4F\	-da	.	.	4g\	-da	4b-\	-da
=2	=2	=2	=2	=2	=2	=2	=2
2F\	Si-	.	.	(4.a\	si-	(4.cc\	si-
.	.	.	.	8b-\)	.	8dd\)	.
4F\	-on	.	.	4a\	-on	4cc\	-on
=3	=3	=3	=3	=3	=3	=3	=3
2F\	sal-	2.r	.	(4.dd\	sal-	(4.ff\	Sal-
.	.	.	.	8cc#X\)	.	8ee\)	.
4F\	-va-	.	.	(8dd\L	-va-	(8ff\L	-va-
.	.	.	.	8b-\J)	.	8dd\J)	.
=4	=4	=4	=4	=4	=4	=4	=4
4F\	-to-	4r	.	(8g#X\L	-to-	(8bn\L	-to-
.	.	.	.	8a\J)	.	8cc\J)	.
4F\	-rem	4r	.	4a\	-rem	4cc\	-rem
8F\	lau-	8.c\	Lau-	8a\	lau-	8cc\	lau-
8F\	-da	.	.	8a\	-da	8cc\	-da
!	!	!	!	!LO:TX:b:i:t=V&colon;S&colon;	!	!	!
.	.	16c\	-da	.	.	.	.
!	!	!	!	!LO:PB:g=original	!	!LO:LB:g=original	!
=5	=5	=5	=5	=5	=5	=5	=5
4.E\	du-	4.c\	du-	4.b-\	du-	4.gg\	du-
8E\	-cem	8c\	-cem	8g\	-cem	8b-\	-cem
!LO:LB:g=original	!	!	!	!	!	!	!
8F\	et	8c\	et	8f\	et	8a\	et
8BB-/	pa-	8d\	pa-	8g\	pa-	8b-\	pa-
=6	=6	=6	=6	=6	=6	=6	=6
4C/	-sto-	4c\	-sto-	4f\	-sto-	4a\	-sto-
4C/	-rem	4c\	-rem	4e\	-rem	4g\	-rem
4r	.	4r	.	4r	.	4r	.
!	!	!LO:LB:g=original	!	!	!	!	!
=7	=7	=7	=7	=7	=7	=7	=7
!	!	!LO:TX:a:t=3.	!	!	!	!	!
!	!	!LO:N:vis=0	!	!	!	!	!
2F\	lau-	1.r	.	(4a\	lau-	(4cc\	lau-
.	.	.	.	4f\)	.	4a\)	.
4F\	-da	.	.	4g\	-da	4b-\	-da
=8	=8	=8	=8	=8	=8	=8	=8
2F\	si-	.	.	(4.a\	si-	(4.cc\	si-
.	.	.	.	8b-\)	.	8dd\)	.
4F\	-on	.	.	4a\	-on	4cc\	-on
=9	=9	=9	=9	=9	=9	=9	=9
2F\	sal-	2.r	.	(4.dd\	sal-	(4.ff\	Sal-
.	.	.	.	8cc#X\)	.	8ee\)	.
4F\	-va-	.	.	(8dd\L	-va-	(8ff\L	-va-
.	.	.	.	8b-\J)	.	8dd\J)	.
!	!	!	!	!LO:LB:g=original	!	!LO:LB:g=original	!
=10	=10	=10	=10	=10	=10	=10	=10
4F\	-to-	4r	.	(8g#X\L	-to-	(8bn\L	-to-
.	.	.	.	8a\J)	.	8cc\J)	.
4F\	-rem	4r	.	4a\	-rem	4cc\	-rem
8A\	lau-	8.A\	Lau-	8a\	lau-	8a\	lau-
8A\	-da	.	.	8a\	-da	8a\	-da
.	.	16A\	-da	.	.	.	.
=11	=11	=11	=11	=11	=11	=11	=11
4.F\	du-	4.A\	du-	4.a\	du-	4.dd\	du-
8F\	-cem	8A\	-cem	8a\	-cem	8dd\	-cem
8E\	et	8c#X\	et	8a\	et	8ee\	et
!LO:TX:b:i:t=V&colon;S&colon;	!	!	!	!	!	!	!
8E\	pa-	8c#\	pa-	8a\	pa-	8ee\	pa-
!LO:PB:g=original	!	!	!	!	!	!	!
=12	=12	=12	=12	=12	=12	=12	=12
4D\	-sto-	(8c#X\L	-sto-	4a\	-sto-	(8ee\L	-sto-
.	.	8d\J)	.	.	.	8ff\J)	.
4D\	-rem	4d\	-rem	4a\	-rem	4ff\	-rem
!	!	!	!	!	!	!LO:TX:b:t=V&colon;S&colon;	!
4F\	in	4Bn\	in	4g\	in	4dd\	in
!	!	!	!	!	!	!LO:PB:g=original	!
=13	=13	=13	=13	=13	=13	=13	=13
*	*	*2\right	*	*	*	*	*
2E\	him-	2cn\	him-	2g\	him-	(4.gg\	him-
.	.	.	.	.	.	8ee\)	.
8F\	-nis	8d\	-nis	8a\	-nis	8ff\	-nis
8F\	et	8f\	et	8a\	et	8dd\	et
!	!	!LO:LB:g=original	!	!LO:LB:g=original	!	!	!
=14	=14	=14	=14	=14	=14	=14	=14
2G\	can-	(4e\	can-	2g\	can-	(4cc\	can-
.	.	4c\)	.	.	.	4ee\)	.
4F\	-ti-	4Bn\	-ti-	4g\	-ti-	4dd\	-ti-
=15	=15	=15	=15	=15	=15	=15	=15
4E\	-cis	4c\	-cis	4g\	-cis	4gg\	-cis
4r	.	4r	.	4r	.	4r	.
4F\	in	4Bn\	in	4g\	in	4dd\	in
=16	=16	=16	=16	=16	=16	=16	=16
2E\	him-	2c\	him-	2g\	him-	(4.gg\	him-
.	.	.	.	.	.	8ee\)	.
8F\	-nis	8d\	-nis	8a\	-nis	8ff\	-nis
8F\	et	8f\	et	8a\	et	8dd\	et
=17	=17	=17	=17	=17	=17	=17	=17
2G\	can-	(4e\	can-	2g\	can-	(4cc\	can-
.	.	4c\)	.	.	.	4ee\)	.
4GG/	-ti-	4Bn\	-ti-	4f\	-ti-	4dd\	-ti-
=18	=18	=18	=18	=18	=18	=18	=18
2C/	-cis	2c\	-cis	4e\	-cis	2cc\	-cis
.	.	.	.	4r	.	.	.
4r	.	4r	.	4r	.	4r	.
!LO:LB:g=original	!	!	!	!	!	!LO:LB:g=original	!
=19	=19	=19	=19	=19	=19	=19	=19
2C/	quan-	2c\	quan-	2e\	quan-	2cc\	quan-
4C/	-tum	4c\	-tum	4e\	-tum	4cc\	-tum
=20	=20	=20	=20	=20	=20	=20	=20
4C/	po-	4Bn\	po-	(8e\L	po-	(8cc#X\L	po-
.	.	.	.	8f\J)	.	8dd\J)	.
4C/	-tes	4B\	-tes	4f\	-tes	4dd\	-tes
4r	.	4r	.	4r	.	4r	.
!	!	!LO:LB:g=original	!	!LO:LB:g=original	!	!	!
=21	=21	=21	=21	=21	=21	=21	=21
2C/	tan-	2B-X\	tan-	2g\	tan-	2ee\	tan-
4C/	-tum	4B-\	-tum	4g\	-tum	4ee\	-tum
=22	=22	=22	=22	=22	=22	=22	=22
4F\	au-	(8B-\L	au-	(8g\L	au-	(8ee\L	au-
.	.	8A\J)	.	8f\J)	.	8ff\J)	.
4F\	-de	4A\	-de	4f\	-de	4ff\	-de
4r	.	4r	.	4r	.	4r	.
=23	=23	=23	=23	=23	=23	=23	=23
2F\	qui-	(4A\	qui-	2f\	qui-	(4cc\	qui-
.	.	4d\)	.	.	.	4ff\)	.
4F\	-a	4B-\	-a	4f\	-a	4dd\	-a
=24	=24	=24	=24	=24	=24	=24	=24
2F\	Ma-	(4A\	ma-	2f\	ma-	(4cc\	ma-
.	.	4d\)	.	.	.	4ff\)	.
4F\	-jor	4B-\	-jor	4f\	-jor	4dd\	-jor
=25	=25	=25	=25	=25	=25	=25	=25
2F\	Om-	(4A\	om-	2f\	om-	(4cc\	om-
.	.	8d\L	.	.	.	8ff\L	.
.	.	8c#X\J)	.	.	.	8ee\J)	.
4F\	-ni	(8d\L	-ni	4f\	-ni	(8ff\L	-ni
.	.	8B-X\J)	.	.	.	8dd\J)	.
!LO:LB:g=original	!	!	!	!	!	!LO:LB:g=original	!
=26	=26	=26	=26	=26	=26	=26	=26
4F\	lau-	(8G#X/L	lau-	4f\	lau-	(8bn\L	lau-
.	.	8A/J)	.	.	.	8cc\J)	.
4F\	-de	4A/	-de,	4f\	-de	4cc\	-de
!	!	!LO:TX:b:t=V&colon;S&colon;	!	!	!	!	!
4r	.	4r	.	4r	.	4r	.
!	!	!LO:PB:g=original	!	!	!	!	!
=27	=27	=27	=27	=27	=27	=27	=27
2A\	nec	(4c\	nec	2f\	nec	2cc\	nec
.	.	4f\)	.	.	.	.	.
4A\	lau-	4e\	lau-	4g\	lau-	4cc#X\	lau-
!	!	!	!	!LO:LB:g=original	!	!	!
=28	=28	=28	=28	=28	=28	=28	=28
2B-\	-da-	2d\	-da-	2f\	-da-	8dd\L	-da-
.	.	.	.	.	.	8ee\	.
.	.	.	.	.	.	8ff\	.
.	.	.	.	.	.	8dd\J	.
4BB-/	-re	(8d\L	-re	4d\	-re	(8b-X\L	-re
.	.	8B-\J)	.	.	.	8g\J)	.
=29	=29	=29	=29	=29	=29	=29	=29
2C/	suf-	2A\	suf-	2c\	suf-	2f/	suf-
4C/	-fi-	4c\	-fi-	4e\	-fi-	4g\	-fi-
=30	=30	=30	=30	=30	=30	=30	=30
2F\	-cis	2c\	-cis	(4e\	-cis	(4g\	-cis
.	.	.	.	4f\)	.	4a\)	.
4r	.	4r	.	4r	.	4r	.
=31	=31	=31	=31	=31	=31	=31	=31
2A\	nec	(4c\	nec-	2f\	nec	2cc\	nec
.	.	4f\)	.	.	.	.	.
4A\	lau-	4e\	-lau-	4g\	lau-	4cc#X\	lau-
=32	=32	=32	=32	=32	=32	=32	=32
2B-\	-da-	2d\	-da-	2f\	-da-	(8dd\L	-da-
.	.	.	.	.	.	8ee\	.
.	.	.	.	.	.	8ff\	.
.	.	.	.	.	.	8dd\J)	.
4BB-/	-re	(8d\L	-re	4d\	-re	(8b-\L	-re
.	.	8B-\J)	.	.	.	8g\J)	.
!	!	!	!	!	!	!LO:LB:g=original	!
=33	=33	=33	=33	=33	=33	=33	=33
2C/	suf-	2A\	suf-	2c\	suf-	2f/	suf-
4C/	-fi-	4B-\	-fi-	4c\	-fi-	(8a\L	-fi-
.	.	.	.	.	.	8g\J)	.
=34	=34	=34	=34	=34	=34	=34	=34
2F\	-cis	2A\	-cis	2c\	-cis	2f/	-cis
!	!	!	!	!	!	!LO:TX:t=P:problem:podwójna kreska	!
4r	.	4r	.	4r	.	4r	.
!LO:LB:g=original	!	!LO:LB:g=original	!	!	!	!	!
=35	=35	=35	=35	=35	=35	=35	=35
2C/	quan-	2c\	quan-	2e\	quan-	2cc\	quan-
4C/	-tum	4c\	-tum	4e\	-tum	4cc\	-tum
!	!	!	!	!LO:LB:g=original	!	!	!
=36	=36	=36	=36	=36	=36	=36	=36
4C/	po-	4Bn\	po-	(8e\L	po-	(8cc#X\L	po-
.	.	.	.	8f\J)	.	8dd\J)	.
4C/	-tes	4B\	-tes	4f\	-tes	4dd\	-tes
4r	.	4r	.	4r	.	4r	.
=37	=37	=37	=37	=37	=37	=37	=37
2C/	tan-	2B-X\	tan-	2g\	tan-	2ee\	tan-
4C/	-tum	4B-\	-tum	4g\	-tum	4ee\	-tum
=38	=38	=38	=38	=38	=38	=38	=38
4F\	au-	(8B-\L	au-	(8g\L	au-	(8ee\L	au-
.	.	8A\J)	.	8f\J)	.	8ff\J)	.
4F\	-de	4A\	-de	4f\	-de	4ff\	-de
4r	.	4r	.	4r	.	4r	.
=39	=39	=39	=39	=39	=39	=39	=39
2F\	qui-	(4A\	qui-	2f\	qui-	(4cc\	qui-
.	.	4d\)	.	.	.	4ff\)	.
4F\	-a	4B-\	-a	4f\	-a	4dd\	-a
!	!	!	!	!	!	!LO:LB:g=original	!
=40	=40	=40	=40	=40	=40	=40	=40
2F\	ma-	(4A\	ma-	2f\	ma-	(4cc\	ma-
.	.	4d\)	.	.	.	4ff\)	.
4F\	-jor	4B-\	-jor	4f\	-jor	4dd\	-jor
=41	=41	=41	=41	=41	=41	=41	=41
2F\	om-	(4A\	om-	2f\	om-	(4cc\	om-
.	.	8d\L	.	.	.	8ff\L	.
.	.	8c#X\J)	.	.	.	8ee\J)	.
4F\	-ni	(8d\L	-ni	4f\	-ni	(8ff\L	-ni
.	.	8B-\J)	.	.	.	8dd\J)	.
=42	=42	=42	=42	=42	=42	=42	=42
4F\	lau-	(8G#X/L	lau-	4f\	lau-	(8bn\L	lau-
.	.	8A/J)	.	.	.	8cc\J)	.
4F\	-de	4A/	-de	4f\	-de	4cc\	-de
4r	.	4r	.	4r	.	4r	.
!LO:LB:g=original	!	!LO:LB:g=original	!	!	!	!	!
=43	=43	=43	=43	=43	=43	=43	=43
2A\	nec	(4c\	nec-	2f\	nec	2cc\	nec
.	.	4f\)	.	.	.	.	.
4A\	lau-	4e\	-lau-	4g\	lau-	4cc#X\	lau-
!	!	!	!	!LO:LB:g=original	!	!	!
=44	=44	=44	=44	=44	=44	=44	=44
2B-\	-da-	2d\	-da-	2f\	-da-	(8dd\L	-da-
.	.	.	.	.	.	8ee\	.
.	.	.	.	.	.	8ff\	.
.	.	.	.	.	.	8dd\J)	.
4BB-/	-re	(8d\L	-re	4d\	-re	(8b-\L	-re
.	.	8B-\J)	.	.	.	8g\J)	.
=45	=45	=45	=45	=45	=45	=45	=45
2C/	suf-	2A\	suf-	2c\	suf-	2f/	suf-
4C/	-fi-	4c\	-fi-	4e\	-fi-	4g\	-fi-
=46	=46	=46	=46	=46	=46	=46	=46
2F\	-cis	2c\	-cis	(4e\	-cis	(4g\	-cis
.	.	.	.	4f\)	.	4a\)	.
4r	.	4r	.	4r	.	4r	.
!	!	!	!	!	!	!LO:LB:g=original	!
=47	=47	=47	=47	=47	=47	=47	=47
2A\	nec	(4c\	nec-	2f\	nec	2cc\	nec
.	.	4f\)	.	.	.	.	.
4A\	lau-	4e\	-lau-	4g\	lau-	4cc#X\	lau-
=48	=48	=48	=48	=48	=48	=48	=48
2B-\	-da-	2d\	-da-	2f\	-da-	(8dd\L	-da-
.	.	.	.	.	.	8ee\	.
.	.	.	.	.	.	8ff\	.
.	.	.	.	.	.	8dd\J)	.
4BB-/	-re	(8d\L	-re	4d\	-re	(8b-\L	-re
.	.	8B-\J)	.	.	.	8g\J)	.
=49	=49	=49	=49	=49	=49	=49	=49
2C/	suf-	2A\	suf-	2c\	suf-	2f/	suf-
4C/	-fi-	4B-\	-fi-	4c\	-fi-	(8a\L	-fi-
.	.	.	.	.	.	8g\J)	.
=50	=50	=50	=50	=50	=50	=50	=50
4F\	-cis	4A\	-cis	4c\	-cis	4f/	-cis
4r	.	4r	.	4r	.	4r	.
8F\	nec	8.c\	nec	8.a\	nec	8.cc\	nec
8F\	lau-	.	.	.	.	.	.
.	.	16c\	lau-	16a\	lau-	16cc\	lau-
!LO:LB:g=original	!	!LO:LB:g=original	!	!	!	!	!
=51	=51	=51	=51	=51	=51	=51	=51
4C/	-da-	4c\	-da-	4b-\	-da-	4ee\	-da-
4F\	-re	4c\	-re	4a\	-re	4ff\	-re
!	!	!	!	!LO:LB:g=original	!	!	!
8F\	nec	8.c\	nec	8.a\	nec	8.cc\	nec
8F\	lau-	.	.	.	.	.	.
.	.	16c\	lau-	16a\	lau-	16cc\	lau-
=52	=52	=52	=52	=52	=52	=52	=52
4C/	-da-	4c\	-da-	4g\	-da-	4b-\	-da-
4F\	-re	4c\	-re	4f\	-re	4a\	-re
4r	.	4r	.	4r	.	4r	.
!	!	!	!	!	!	!LO:LB:g=original	!
=53	=53	=53	=53	=53	=53	=53	=53
2C/	suf-	2B-\	suf-	2c\	suf-	2e/	suf-
4C/	-fi-	4B-\	-fi-	4c\	-fi-	4e/	-fi-
=54	=54	=54	=54	=54	=54	=54	=54
2.F\	-cis.	2.A\	-cis.	2c\	-cis.	2f/	-cis.
.	.	.	.	4r	.	4r	.
==	==	==	==	==	==	==	==
*-	*-	*-	*-	*-	*-	*-	*-
!!!system-decoration: [(s1,s2,s3,s4)]
!!!ENC: Marta Lawrence
!!!END: 2021-02-13
!!!ENC: Andrzej Borzym
!!!END: 2021-02-01
